!!!COM: Bach, Johann Sebastian
!!!CDT: 1685/03/31-1750/07/28
!!!OTL: Sinfonia 12 in A major
!!!SCA: BWV 798
**kern	**kern	**kern
*staf3	*staff2	*staff1
*I"	*I"	*I"
*clefF4	*clefG2	*clefG2
*k[f#c#g#]	*k[f#c#g#]	*k[f#c#g#]
*A:	*A:	*A:
*M4/4	*M4/4	*M4/4
*met(c)	*met(c)	*met(c)
*MM92	*MM92	*MM92
=1	=1	=1
8A	1r	8aL
8r	.	16g#L
.	.	16aJJ
8G#	.	8bL
8r	.	16aL
.	.	16g#JJ
8F#	.	[4a
8r	.	.
8C#	.	16aLL]
.	.	16b
8r	.	16g#
.	.	16aJJ
=2	=2	=2
8D	1r	16bLL
.	.	16e
8r	.	16cc#
.	.	16eJJ
8E	.	16ddLL
.	.	16eJ
8r	.	8eeJ
8AAL	.	16cc#LL
.	.	16b
8A	.	16a
.	.	16bJJ
8G#	.	16cc#LL
.	.	16dd#X
8F#J	.	16ee
.	.	16ff#JJ
=3	=3	=3
8E	8eL	16gg#LL
.	.	16aaJ
8r	16d#XL	[8bbJ
.	16eJJ	.
8d#X	8f#L	16bbLL]
.	.	16aa
8r	16eL	16gg#
.	16d#JJ	16ff#JJ
8c#	[4e	16eeLL
.	.	16dd#X
8r	.	16cc#
.	.	16bJJ
8G#	16eLL]	[4ee
.	16f#	.
8r	16d#	.
.	16eJJ	.
!!LO:LB:g=original
=4	=4	=4
8A	16f#LL	4ee]
.	16B	.
8r	16g#	.
.	16BJJ	.
8B	16aLL	4dd#X
.	16BJ	.
8r	8bJ	.
8e	16g#LL	8eeL
.	16a	.
8r	16b	16ddnL
.	16aJJ	16cc#JJ
4r	16g#LL	16ddLL
.	16f#	16ee
.	16e	16ff#
.	16dJJ	16gg#JJ
=5	=5	=5
8AL	16c#LL	8.aaL
.	16cc#J	.
16G#L	[8ff#J	.
16AJJ	.	16aaJk
8BL	16ff#LL]	8.gg#L
.	16dd#XJ	.
16AL	[8eeJ	.
16G#JJ	.	16gg#Jk
[4A	16eeLL]	8.ff#L
.	16cc#J	.
.	[8ddnJ	.
.	.	16ff#Jk
16ALL]	16ddLL]	8.eeL
16B	16bJ	.
16G#	8cc#J	.
16AJJ	.	16eeJk
=6	=6	=6
16BLL	8g#	8ddL
16E	.	.
16c#	4a	8cc#J
16EJJ	.	.
16dLL	.	4b
16EJ	.	.
8eJ	8g#	.
16c#LL	4.a	8aL
16B	.	.
16A	.	8cc#J
16BJJ	.	.
16c#LL	.	[4ff#
16d#X	.	.
16e	8a	.
16f#JJ	.	.
!!LO:LB:g=original
=7	=7	=7
16BLL	4.g#	8ff#L]
16A	.	.
16G#	.	8bJ
16AJJ	.	.
16BLL	.	[4ee
16c#	.	.
16d#X	8g#	.
16eJJ	.	.
16ALL	2f#	8eeL]
16G#	.	.
16F#	.	16dd#XL
16G#JJ	.	16eeJJ
16ALL	.	8ff#L
16G#	.	.
16A	.	16eeL
16BJJ	.	16dd#JJ
=8	=8	=8
8G#L	16r	[4ee
.	16dd#XLL	.
16AL	16cc#	.
16BJJ	16bJJ	.
[4c#	16aLL	16eeLL]
.	16g#	16ff#
.	16f#	16dd#
.	16eJJ	16eeJJ
16c#LL]	8d#X	16ff#LL
16B	.	16b
16A	4e	16gg#
16G#JJ	.	16bJJ
8F#L	.	16aaLL
.	.	16bJ
8BJ	8d#	8bbJ
=9	=9	=9
4E	4e	16gg#LL
.	.	16aa
.	.	16bb
.	.	16aaJJ
16r	4r	16gg#LL
16ALL	.	16ff#
16G#	.	16ee
16F#JJ	.	16ddnJJ
16E#XLL	8r	[2cc#
16C#	.	.
16F#	16g#LL	.
16C#JJ	16aJJ	.
16G#LL	8bL	.
16C#	.	.
16E#	16aL	.
16C#JJ	16g#JJ	.
!!LO:LB:g=original
=10	=10	=10
16F#LL	[2a	8cc#L]
16C#	.	.
16G#	.	16cc#L
16C#JJ	.	16ddJJ
16F#LL	.	8eeL
16C#	.	.
16E	.	16ddL
16C#JJ	.	16cc#JJ
16D#XLL	8aL]	[2b
16BB	.	.
16E	16f#L	.
16BBJJ	16g#JJ	.
16F#LL	8aL	.
16BB	.	.
16D#	16g#L	.
16BBJJ	16f#JJ	.
=11	=11	=11
16ELL	[2g#	8bL]
16BB	.	.
16F#	.	16bL
16BBJJ	.	16cc#JJ
16ELL	.	8ddL
16BB	.	.
16D	.	16cc#L
16BBJJ	.	16bJJ
16C#LL	8g#L]	[2a
16AA	.	.
16D	16e#XL	.
16AAJJ	16f#JJ	.
16EnLL	8g#L	.
16AA	.	.
16C#	16f#L	.
16AAJJ	16e#XJJ	.
=12	=12	=12
16DLL	[2f#	8aL]
16AA	.	.
16E	.	16aL
16AAJJ	.	16bJJ
16DLL	.	8cc#L
16AA	.	.
16C#	.	16bL
16AAJJ	.	16aJJ
16BB#XLL	8f#L]	[2g#
16GG#	.	.
16C#	16d#XL	.
16GG#JJ	16e#XJJ	.
16D#XLL	8f#L	.
16GG#	.	.
16BB#	16e#L	.
16GG#JJ	16d#JJ	.
!!LO:LB:g=original
=13	=13	=13
[1C#	8e#XL	8g#L]
.	16e#L	16g#L
.	16f#JJ	16aJJ
.	8g#L	8bL
.	16f#L	16aL
.	16e#JJ	16g#JJ
.	4f#	8aL
.	.	16a#XL
.	.	16b#XJJ
.	4en	8cc#L
.	.	16b#L
.	.	16a#JJ
=14	=14	=14
2C#]	4d#X	8b#XL
.	.	16b#L
.	.	16cc#JJ
.	2f#	8dd#XL
.	.	16cc#L
.	.	16b#JJ
16r	.	8cc#L
16dnLL	.	.
16c#	.	16g#L
16BJJ	.	16anJJ
16c#LL	4e#X	8bnL
16A	.	.
16B	.	16aL
16c#JJ	.	16g#JJ
=15	=15	=15
8F#L	16f#	16aLL
.	16r	16f#
16E#XL	8r	16g#
16F#JJ	.	16aJJ
8G#L	4r	16bLL
.	.	16cc#
16F#L	.	16dd
16E#XJJ	.	16eenJJ
[4F#	16r	8.ddL
.	16cc#KL	.
.	[8bJ	.
.	.	16ddJk
16F#LL]	16bLL]	8.cc#L
16G#	16bJ	.
16E#	8aJ	.
16F#JJ	.	16cc#Jk
!!LO:LB:g=original
=16	=16	=16
16G#LL	8e#X	8bL
16C#	.	.
16A	4f#	8aJ
16C#JJ	.	.
16BLL	.	4g#
16C#	.	.
16c#	8e#	.
16BJJ	.	.
16ALL	4.f#	8f#L
16B	.	.
16c#	.	8cc#J
16BJJ	.	.
16c#LL	.	[4ff#
16G#	.	.
16F#	8a	.
16EJJ	.	.
=17	=17	=17
16BLL	[4dd	8ff#L]
16c#	.	.
16d	.	8bJ
16c#JJ	.	.
16BLL	8ddL]	[4gg#
16A	.	.
16G#	8bJ	.
16F#JJ	.	.
16c#LL	[4ee	8gg#L]
16d	.	.
16e	.	8cc#J
16dJJ	.	.
16c#LL	8eeL]	[4aa
16B	.	.
16A	8cc#J	.
16G#JJ	.	.
=18	=18	=18
16d#XLL	[2ff#	8aaL]
16e	.	.
16f#	.	8dd#X
16eJJ	.	.
16d#LL	.	8bb
16c#	.	.
16B	.	8aaJ
16AJJ	.	.
[2e	8ff#L]	8gg#L
.	16bL	16gg#L
.	16cc#JJ	16aaJJ
.	8ddnL	8bbL
.	16cc#L	16aaL
.	16bJJ	16gg#JJ
!!LO:LB:g=original
=19	=19	=19
1e_	8cc#L	4aa
.	16cc#L	.
.	16dd#XJJ	.
.	8eeL	4gg#
.	16dd#L	.
.	16cc#JJ	.
.	8dd#L	4ff#
.	16dd#L	.
.	16eeJJ	.
.	8ff#L	[4aa
.	16eeL	.
.	16dd#JJ	.
=20	=20	=20
16eLL]	2ee	8aaL]
16c#	.	.
16B	.	16gg#L
16AJJ	.	16aaJJ
16G#LL	.	16bbLL
16F#	.	16aa
16E	.	16gg#
16DJJ	.	16ff#JJ
16C#LL	2r	16eeLL
16A	.	16dd
16D	.	16cc#
16AJJ	.	16bJJ
16ELL	.	16aLL
16A	.	16cc#
16C#	.	16ee
16AJJ	.	16ggnJJ
=21	=21	=21
16DLL	8r	[2ff#
16A	.	.
16E	16aLL	.
16AJJ	16bJJ	.
16DLL	8cc#L	.
16A	.	.
16C#	16bL	.
16AJJ	16aJJ	.
16BBLL	[2g#	8ff#L]
16G#	.	.
16C#	.	16ddL
16G#JJ	.	16eeJJ
16DLL	.	8ff#L
16G#	.	.
16BB	.	16eeL
16G#JJ	.	16ddJJ
!!LO:LB:g=original
=22	=22	=22
16C#LL	8g#L]	[2ee
16G#	.	.
16D	16g#L	.
16G#JJ	16aJJ	.
16C#LL	8bL	.
16G#	.	.
16BB	16aL	.
16G#JJ	16g#JJ	.
16AA#XLL	[2f#	8eeL]
16F#	.	.
16BB	.	16cc#L
16F#JJ	.	16ddJJ
16C#LL	.	8eeL
16F#	.	.
16AA#	.	16ddL
16F#JJ	.	16cc#JJ
=23	=23	=23
16BBLL	8f#L]	[2dd
16F#	.	.
16C#	16f#L	.
16F#JJ	16g#JJ	.
16BBLL	8aL	.
16F#	.	.
16AA	16g#L	.
16F#JJ	16f#JJ	.
16GG#LL	[2e	8ddL]
16E	.	.
16EE	.	16bL
16EJJ	.	16cc#JJ
16FF#LL	.	8ddL
16E	.	.
16GG#	.	16cc#L
16EJJ	.	16bJJ
=24	=24	=24
8AAL	8e]	16cc#LL
.	.	16aJ
16GG#L	16r	[8ff#J
16AAJJ	16a	.
8BBL	8.g#L	16ff#LL]
.	.	16dd#XJ
16AAL	.	[8eeJ
16GG#JJ	16g#Jk	.
[4AA	8.f#L	16eeLL]
.	.	16cc#J
.	.	[8ddnJ
.	16f#Jk	.
16AALL]	8.eL	16ddLL]
16BB	.	16bJ
16GG#	.	8cc#J
16AAJJ	16eJk	.
!!LO:LB:g=original
=25	=25	=25
16BBLL	8dL	8g#
16EE	.	.
16C#	8c#J	4a
16EEJJ	.	.
16DLL	4B	.
16EEJ	.	.
8EJ	.	8g#
8AA	16eLL	8aL
.	16c#J	.
4F#	[8dJ	16g#L
.	.	16aJJ
.	16dLL]	8bL
.	16BJ	.
8E#X	[8c#J	16aL
.	.	16g#JJ
=26	=26	=26
4.F#	16c#LL]	[4a
.	16A	.
.	16B	.
.	16G#JJ	.
.	[4A	16aLL]
.	.	16b
8En	.	16g#
.	.	16aJJ
8DL	16ALL]	16bLL
.	16G#JJ	16e
8C#	4A	16cc#
.	.	16eJJ
8BB	.	16ddLL
.	.	16eJ
8EJ	8G#	8eeJ
=27	=27	=27
4AA	8AL	16cc#LL
.	.	16b
.	8c#J	16a
.	.	16bJJ
8r	[4f#	16cc#LL
.	.	16dd
8A	.	16ee
.	.	16ff#JJ
4.G#	8f#L]	16bLL
.	.	16a
.	8BJ	16g#
.	.	16aJJ
.	[4e	16bLL
.	.	16cc#
8G#	.	16dd
.	.	16eeJJ
!!LO:LB:g=original
=28	=28	=28
4.F#	8e]	8eL
.	.	.
*	*clefF4	*
.	8AJ	16f#
.	.	16g#JJ
.	[4d	16aLL
.	.	16b
8F#	.	16cc#
.	.	16ddJJ
[2E	8dL]	16g#LL
.	.	16b
.	16BL	16g#
.	16c#JJ	16eJJ
.	8dL	[4ee
.	16c#L	.
.	16BJJ	.
=29	=29	=29
1E_	8c#L	16eeLL]
.	.	16ee
.	16AL	16cc#
.	16BJJ	16aJJ
.	8c#L	[4aa
.	16BL	.
.	16AJJ	.
.	8BL	16aaLL]
.	.	16b
.	16G#L	16dd
.	16AJJ	16ff#JJ
.	8BL	[4gg#
.	16AL	.
.	16G#JJ	.
=30	=30	=30
2E_	8AL	16gg#LL]
.	.	16a
.	16F#L	16cc#
.	16G#JJ	16eeJJ
.	8AL	[4ff#
.	16G#L	.
.	16F#JJ	.
16ELL]	8G#	16ff#LL]
16E	.	16ee
16G#	8r	16dd#X
16BJJ	.	16eeJJ
*	*clefG2	*
16cnLL	8a	8a
16G#	.	.
16A	8r	8r
16D#XJJ	.	.
=31	=31	=31
8E	8.aL	8.cc#L
8r	.	.
.	16bJk	16ddnJk
8EE	4g#	8.bL
8r	.	.
.	.	16aJk
2AA;	2a;	2a;
==	==	==
*-	*-	*-
!!!system-decoration: [(s1,s2,s3)]
!!!URL-pdf: https://vmirror.imslp.org/files/imglnks/usimg/5/55/IMSLP396136-PMLP03268-Bach,_Johann_Sebastian-Werke_Breitkopf_Band_3_02_BWV_787-801.pdf#page=18 Bach-Gesellschaft Ausgabe, Band 3 (pp.19-42) Leipzig: Breitkopf und Härtel, 1853. Plate B.W. III.
!!!URL-youtube: https://www.youtube.com/watch?v=Lao8x1bHWEg&t=1428s Malinowski
!!!SMS: Bach-Gesellschaft Ausgabe, Band 3 (pp.19-42) Leipzig: Breitkopf und Härtel, 1853. Plate B.W. III.
!!!ONB: Open-score format
!!!ENC: Craig Stuart Sapp
!!!END: 2024/03/29
!!!EED: Craig Stuart Sapp
!!!EEV: 2024/03/29
!!!title: @{OTL} (@{SCA})
!!!voices: 3
!!!AGN: polyphony
!!!AST: baroque
!!!AMT: simple quadruple
!!!AIN: cemb; clavi
